src/assets/icon-clock.svg

<?xml version="1.0" encoding="UTF-8"?>
<svg width="16px" height="16px" viewBox="0 0 16 16" version="1.1" xmlns="http://www.w3.org/2000/svg" xmlns:xlink="http://www.w3.org/1999/xlink">
    <title>icon_年代</title>
    <g id="页面-1" stroke="none" stroke-width="1" fill="none" fill-rule="evenodd">
        <g id="藏品展示-3D" transform="translate(-32.000000, -686.000000)" fill="#FFFFFF" fill-rule="nonzero">
            <g id="编组-3" transform="translate(16.000000, 666.000000)">
                <g id="编组-8" transform="translate(16.000000, 16.000000)">
                    <g id="icon_年代" transform="translate(0.000000, 4.000000)">
                        <path d="M8,0 C3.55555556,0 0,3.61111111 0,8 C0,12.3888889 3.61111111,16 8,16 C12.3888889,16 16,12.3888889 16,8 C16,3.61111111 12.4444444,0 8,0 Z M8,15.2222222 C4.05555556,15.2222222 0.833333333,12 0.833333333,8.05555556 C0.833333333,4.11111111 4.05555556,0.888888889 8,0.888888889 C11.9444444,0.888888889 15.1666667,4.11111111 15.1666667,8.05555556 C15.1666667,12 12,15.2222222 8,15.2222222 Z" id="形状"></path>
                        <path d="M13.1666667,8.33333333 L8.33333333,8.33333333 L8.33333333,3.44444444 C8.33333333,3.22222222 8.16666667,3.05555556 7.94444444,3.05555556 C7.72222222,3.05555556 7.55555556,3.22222222 7.55555556,3.44444444 L7.55555556,8.77777778 C7.55555556,9 7.72222222,9.16666667 7.94444444,9.16666667 C7.94444444,9.16666667 8,9.16666667 8,9.16666667 L13.1666667,9.16666667 C13.3888889,9.16666667 13.5555556,9 13.5555556,8.77777778 C13.5555556,8.5 13.3888889,8.33333333 13.1666667,8.33333333 Z" id="路径"></path>
                    </g>
                </g>
            </g>
        </g>
    </g>
</svg>

<svg xmlns="http://www.w3.org/2000/svg" width="16" height="16" fill="#fff" xmlns:v="https://vecta.io/nano"><path d="M8 0C3.556 0 0 3.611 0 8s3.611 8 8 8 8-3.611 8-8-3.556-8-8-8zm0 15.222C4.056 15.222.833 12 .833 8.056A7.19 7.19 0 0 1 8 .889c3.944 0 7.167 3.222 7.167 7.167A7.15 7.15 0 0 1 8 15.222zm5.167-6.889H8.333V3.444a.38.38 0 0 0-.389-.389.38.38 0 0 0-.389.389v5.333a.38.38 0 0 0 .389.389H8h5.167a.38.38 0 0 0 .389-.389c0-.278-.167-.444-.389-.444z"/></svg>
